X: 6
T: The Wheels Of The World
R: reel
M: 4/4
L: 1/8
K: Dmix
|: dc | AD (3DDD FAGF | EC (3CCC G,CEG | AD (3DDD FAde | =fedc Addc |
AD (3DDD FAGF|EC (3CCC EFGc|AddB cBAG| EDCE D2 :|
|: AB | c3e gecA | d2ad bdad | cBcd ed (3Bcd | eaag edAB |
c3e gecA | d2ad bdad | abag efge | fage d2 :|


|: dc | AD (3DDD FAGF | EC (3CCC G,CEG | AD (3DDD FAde | =fedc AdcB |
AD (3DDD FAGF|EC (3CCC  G,CEG|AddB cBAG| EDDE D2 :|